packages/foundations/assets/icons/functional/images/arrows/chevron_left_28.svg

<svg width="28" height="28" viewBox="0 0 28 28" fill="none" xmlns="http://www.w3.org/2000/svg">
<g clip-path="url(#clip0_77_500)">
<path fill-rule="evenodd" clip-rule="evenodd" d="M18.375 21C18.375 21.492 18.019 21.875 17.5 21.875C17.2675 21.8715 17.0441 21.7842 16.871 21.629L9.871 14.629C9.71561 14.4556 9.62823 14.2318 9.625 13.999C9.625 13.781 9.707 13.562 9.871 13.371L16.871 6.371C17.0441 6.21583 17.2675 6.12847 17.5 6.125C17.719 6.125 17.937 6.207 18.129 6.371C18.293 6.563 18.375 6.781 18.375 7.001C18.3714 7.23314 18.284 7.45617 18.129 7.629L11.731 13.999L18.129 20.371C18.293 20.562 18.375 20.781 18.375 21Z" fill="#1A1C1F"/>
</g>
<defs>
<clipPath id="clip0_77_500">
<rect width="28" height="28" fill="white"/>
</clipPath>
</defs>
</svg>

<svg xmlns="http://www.w3.org/2000/svg" width="28" height="28" fill="none"><g clip-path="url(#a)"><path fill="#1A1C1F" fill-rule="evenodd" d="M18.375 21c0 .492-.356.875-.875.875a.96.96 0 0 1-.629-.246l-7-7a.96.96 0 0 1-.246-.63c0-.218.082-.437.246-.628l7-7a.96.96 0 0 1 .629-.246c.219 0 .437.082.629.246.164.192.246.41.246.63a.96.96 0 0 1-.246.628l-6.398 6.37 6.398 6.372c.164.191.246.41.246.629" clip-rule="evenodd"/></g><defs><clipPath id="a"><path fill="#fff" d="M0 0h28v28H0z"/></clipPath></defs></svg>
